X: 12
T:Rufty Tufty
% Nottingham Music Database
S:Playford
M:4/4
L:1/4
K:D
A|"D"d2 "A7"de|"D"f2 ef|"G"gg "A7"fe|"D"d3:|
K:G
e/2f/2|"C"gf ed|"G"dc BB/2c/2|"G"dd cB|[1"D7"A2 "G"G:|[2"D7" A2 "G" G2
|:"G"B3/2c/2 dd|"C"ec "D7"d2|"G"B3/2c/2 dd|"G"ec "D7"dB/2c/2|"G"dd cB|\
"D7"A2 "G"G2:|


